school/img/country/MT.svg

<svg width="13" height="12" viewBox="0 0 13 12" fill="none" xmlns="http://www.w3.org/2000/svg">
<rect x="0.25" y="0.25" width="12.5" height="11.5" rx="1.75" fill="white" stroke="#F5F5F5" stroke-width="0.5"/>
<mask id="mask0" mask-type="alpha" maskUnits="userSpaceOnUse" x="0" y="0" width="13" height="12">
<rect x="0.25" y="0.25" width="12.5" height="11.5" rx="1.75" fill="white" stroke="white" stroke-width="0.5"/>
</mask>
<g mask="url(#mask0)">
<path fill-rule="evenodd" clip-rule="evenodd" d="M6.80957 12H13V0H6.80957V12Z" fill="#DE233C"/>
<mask id="path-5-outside-1" maskUnits="userSpaceOnUse" x="0.238159" y="0.600006" width="4" height="5" fill="black">
<rect fill="white" x="0.238159" y="0.600006" width="4" height="5"/>
<path fill-rule="evenodd" clip-rule="evenodd" d="M2.47623 1.60001H1.85719V2.4H1.23816V3.2H1.85719V4.00001H2.47623V3.2H3.0953V2.4H2.47623V1.60001Z"/>
</mask>
<path fill-rule="evenodd" clip-rule="evenodd" d="M2.47623 1.60001H1.85719V2.4H1.23816V3.2H1.85719V4.00001H2.47623V3.2H3.0953V2.4H2.47623V1.60001Z" fill="#CCCCCD"/>
<path d="M1.85719 1.60001V0.933339H1.19052V1.60001H1.85719ZM2.47623 1.60001H3.1429V0.933339H2.47623V1.60001ZM1.85719 2.4V3.06667H2.52385V2.4H1.85719ZM1.23816 2.4V1.73334H0.571492V2.4H1.23816ZM1.23816 3.2H0.571492V3.86667H1.23816V3.2ZM1.85719 3.2H2.52385V2.53334H1.85719V3.2ZM1.85719 4.00001H1.19052V4.66667H1.85719V4.00001ZM2.47623 4.00001V4.66667H3.1429V4.00001H2.47623ZM2.47623 3.2V2.53334H1.80957V3.2H2.47623ZM3.0953 3.2V3.86667H3.76197V3.2H3.0953ZM3.0953 2.4H3.76197V1.73334H3.0953V2.4ZM2.47623 2.4H1.80957V3.06667H2.47623V2.4ZM1.85719 2.26667H2.47623V0.933339H1.85719V2.26667ZM2.52385 2.4V1.60001H1.19052V2.4H2.52385ZM1.23816 3.06667H1.85719V1.73334H1.23816V3.06667ZM1.90483 3.2V2.4H0.571492V3.2H1.90483ZM1.85719 2.53334H1.23816V3.86667H1.85719V2.53334ZM2.52385 4.00001V3.2H1.19052V4.00001H2.52385ZM2.47623 3.33334H1.85719V4.66667H2.47623V3.33334ZM1.80957 3.2V4.00001H3.1429V3.2H1.80957ZM3.0953 2.53334H2.47623V3.86667H3.0953V2.53334ZM2.42864 2.4V3.2H3.76197V2.4H2.42864ZM2.47623 3.06667H3.0953V1.73334H2.47623V3.06667ZM1.80957 1.60001V2.4H3.1429V1.60001H1.80957Z" fill="#7B716A" fill-opacity="0.66" mask="url(#path-5-outside-1)"/>
<path fill-rule="evenodd" clip-rule="evenodd" d="M2.1667 3.19999C2.33765 3.19999 2.47623 3.02091 2.47623 2.79999C2.47623 2.57908 2.33765 2.39999 2.1667 2.39999C1.99576 2.39999 1.85718 2.57908 1.85718 2.79999C1.85718 3.02091 1.99576 3.19999 2.1667 3.19999Z" fill="#7B716A"/>
</g>
</svg>

<svg width="13" height="12" fill="none" xmlns="http://www.w3.org/2000/svg"><rect x=".25" y=".25" width="12.5" height="11.5" rx="1.75" fill="#fff" stroke="#F5F5F5" stroke-width=".5"/><mask id="a" maskUnits="userSpaceOnUse" x="0" y="0" width="13" height="12"><rect x=".25" y=".25" width="12.5" height="11.5" rx="1.75" fill="#fff" stroke="#fff" stroke-width=".5"/></mask><g mask="url(#a)"><path fill-rule="evenodd" clip-rule="evenodd" d="M6.81 12H13V0H6.81v12z" fill="#DE233C"/><mask id="b" maskUnits="userSpaceOnUse" x=".238" y=".6" width="4" height="5" fill="#000"><path fill="#fff" d="M.238.6h4v5h-4z"/><path fill-rule="evenodd" clip-rule="evenodd" d="M2.476 1.6h-.619v.8h-.619v.8h.62V4h.618v-.8h.62v-.8h-.62v-.8z"/></mask><path fill-rule="evenodd" clip-rule="evenodd" d="M2.476 1.6h-.619v.8h-.619v.8h.62V4h.618v-.8h.62v-.8h-.62v-.8z" fill="#CCCCCD"/><path d="M1.857 1.6V.933h-.666V1.6h.666zm.62 0h.666V.933h-.667V1.6zm-.62.8v.667h.667V2.4h-.667zm-.619 0v-.667H.571V2.4h.667zm0 .8H.571v.667h.667V3.2zm.62 0h.666v-.667h-.667V3.2zm0 .8H1.19v.667h.666V4zm.618 0v.667h.667V4h-.667zm0-.8v-.667H1.81V3.2h.666zm.62 0v.667h.666V3.2h-.667zm0-.8h.666v-.667h-.667V2.4zm-.62 0H1.81v.667h.666V2.4zm-.619-.133h.62V.933h-.62v1.334zm.667.133v-.8H1.19v.8h1.333zm-1.286.667h.62V1.733h-.62v1.334zm.667.133v-.8H.57v.8h1.334zm-.048-.667h-.619v1.334h.62V2.533zM2.524 4v-.8H1.19V4h1.333zm-.048-.667h-.619v1.334h.62V3.333zM1.81 3.2V4h1.333v-.8H1.81zm1.285-.667h-.619v1.334h.62V2.533zM2.43 2.4v.8h1.333v-.8H2.429zm.047.667h.62V1.733h-.62v1.334zM1.81 1.6v.8h1.333v-.8H1.81z" fill="#7B716A" fill-opacity=".66" mask="url(#b)"/><path fill-rule="evenodd" clip-rule="evenodd" d="M2.167 3.2c.17 0 .31-.18.31-.4 0-.22-.14-.4-.31-.4-.171 0-.31.18-.31.4 0 .22.139.4.31.4z" fill="#7B716A"/></g></svg>
